ccodes/notable.svg

<?xml version="1.0" encoding="UTF-8" standalone="no"?>
<svg
   id="body_1"
   width="60"
   height="60"
   version="1.1"
   sodipodi:docname="notable.svg"
   inkscape:version="1.2.2 (732a01da63, 2022-12-09)"
   xmlns:inkscape="http://www.inkscape.org/namespaces/inkscape"
   xmlns:sodipodi="http://sodipodi.sourceforge.net/DTD/sodipodi-0.dtd"
   xmlns="http://www.w3.org/2000/svg"
   xmlns:svg="http://www.w3.org/2000/svg">
  <defs
     id="defs430" />
  <sodipodi:namedview
     id="namedview428"
     pagecolor="#ffffff"
     bordercolor="#666666"
     borderopacity="1.0"
     inkscape:showpageshadow="2"
     inkscape:pageopacity="0.0"
     inkscape:pagecheckerboard="0"
     inkscape:deskcolor="#d1d1d1"
     showgrid="false"
     inkscape:zoom="8.55"
     inkscape:cx="49.239766"
     inkscape:cy="31.345029"
     inkscape:window-width="1920"
     inkscape:window-height="1009"
     inkscape:window-x="-8"
     inkscape:window-y="-8"
     inkscape:window-maximized="1"
     inkscape:current-layer="body_1" />
  <g
     transform="matrix(0.36115097,0,0,0.35599385,5.1685991,5.1226208)"
     id="g425"
     style="stroke-width:1.99731">
    <g
       transform="translate(415.789,-394.204)"
       id="g423"
       style="stroke-width:1.99731">
      <path
         d="m -347.03275,394.67935 c -5.04575,4.06931 -7.53469,11.48125 -8.62341,20.43878 -4.08621,-8.04513 -8.9595,-14.15893 -15.09284,-16.25726 -3.34963,5.54965 -3.15356,13.36588 -1.11294,22.15549 -6.59131,-6.16223 -13.2616,-10.24051 -19.74261,-10.11456 -1.24955,6.3606 1.60812,13.63845 6.53198,21.20013 -8.30151,-3.53633 -15.96451,-5.08733 -22.01166,-2.75235 1.00128,6.40452 6.17587,12.26599 13.38907,17.68759 -9.01034,-0.4837 -16.74174,0.67966 -21.62558,4.94211 3.13134,5.67584 9.99866,9.41394 18.63114,12.04156 -8.63248,2.62711 -15.49973,6.3646 -18.63126,12.04032 4.88373,4.26254 12.61526,5.42669 21.62573,4.94344 -7.21327,5.42115 -12.38803,11.2818 -13.38947,17.68632 6.0471,2.33514 13.71064,0.7846 22.01246,-2.75128 -4.92414,7.56131 -7.78232,14.83846 -6.5329,21.19926 6.48111,0.12605 13.1521,-3.9522 19.74396,-10.11436 -2.04105,8.78956 -2.23795,16.60546 1.11163,22.15536 6.13299,-2.09805 11.00677,-8.21146 15.09335,-16.25564 1.08884,8.95648 3.57798,16.36828 8.62342,20.4378 5.04562,-4.07013 7.53393,-11.48206 8.62218,-20.43903 4.08662,8.04457 8.96064,14.15851 15.0939,16.25702 3.3493,-5.55035 3.1525,-13.36635 1.11164,-22.15548 6.59159,6.16183 13.26291,10.24003 19.74408,10.11433 1.249,-6.36104 -1.60928,-13.6383 -6.53302,-21.19923 8.30146,3.5357 15.9653,5.08609 22.0126,2.75128 -1.00195,-6.40455 -6.1766,-12.26535 -13.38934,-17.68631 9.01001,0.48316 16.74186,-0.68104 21.62586,-4.94344 -3.13202,-5.6756 -9.99915,-9.4131 -18.63102,-12.0402 8.63184,-2.62754 15.4991,-6.366 18.63074,-12.0417 -4.88434,-4.26217 -12.61566,-5.42565 -21.62558,-4.94195 7.21271,-5.42141 12.38734,-11.28323 13.38892,-17.68775 -6.04755,-2.33462 -13.71063,-0.78332 -22.01178,2.75276 4.9236,-7.5615 7.7814,-14.83966 6.5321,-21.20056 -6.48126,-0.12546 -13.15164,3.9531 -19.74276,10.11495 2.04049,-8.78939 2.23656,-16.60598 -1.11294,-22.15603 -6.13364,2.09906 -11.0068,8.21358 -15.0931,16.25878 -1.08812,-8.95812 -3.57646,-16.37045 -8.62245,-20.44018 v 0 z"
         stroke="#c4a000"
         stroke-width="1.47801"
         fill="#edd400"
         fill-rule="nonzero"
         id="path419" />
      <path
         d="m -309.45938,464.0207 c 0,10.37566 -3.66834,19.2318 -11.00502,26.56847 -7.3367,7.33667 -16.19283,11.00501 -26.56847,11.00501 -10.37563,0 -19.23178,-3.66834 -26.56848,-11.00501 -7.33667,-7.33667 -11.005,-16.19281 -11.005,-26.56847 0,-10.37562 3.66833,-19.2318 11.005,-26.5685 7.3367,-7.33663 16.19285,-11.00496 26.56848,-11.005 10.37564,4e-5 19.23177,3.66837 26.56847,11.005 7.33668,7.3367 11.00502,16.19288 11.00502,26.5685 0,0.43725 -0.008,0.87432 -0.0229,1.3113"
         stroke="none"
         fill="#8f5902"
         fill-rule="nonzero"
         id="path421"
         style="stroke-width:3.95936" />
    </g>
  </g>
</svg>

<?xml version="1.0" encoding="UTF-8" standalone="no"?>
<!DOCTYPE svg PUBLIC "-//W3C//DTD SVG 1.0//EN" "http://www.w3.org/TR/2001/REC-SVG-20010904/DTD/svg10.dtd">
<svg xmlns="http://www.w3.org/2000/svg" xmlns:xlink="http://www.w3.org/1999/xlink" id="body_1" width="99" height="100">

<g transform="matrix(0.71616095 0 0 0.71616095 0.259534 -0)">
	<g transform="matrix(1 0 0 1 415.789 -394.204)">
        <path d="M-347.03275 394.67935C -352.0785 398.74866 -354.56744 406.1606 -355.65616 415.11813C -359.74237 407.073 -364.61566 400.9592 -370.749 398.86087C -374.09863 404.41052 -373.90256 412.22675 -371.86194 421.01636C -378.45325 414.85413 -385.12354 410.77585 -391.60455 410.9018C -392.8541 417.2624 -389.99643 424.54025 -385.07257 432.10193C -393.37408 428.5656 -401.03708 427.0146 -407.08423 429.34958C -406.08295 435.7541 -400.90836 441.61557 -393.69516 447.03717C -402.7055 446.55347 -410.4369 447.71683 -415.32074 451.97928C -412.1894 457.65512 -405.32208 461.39322 -396.6896 464.02084C -405.32208 466.64795 -412.18933 470.38544 -415.32086 476.06116C -410.43713 480.3237 -402.7056 481.48785 -393.69513 481.0046C -400.9084 486.42575 -406.08316 492.2864 -407.0846 498.69092C -401.0375 501.02606 -393.37396 499.47552 -385.07214 495.93964C -389.99628 503.50095 -392.85446 510.7781 -391.60504 517.1389C -385.12393 517.26495 -378.45294 513.1867 -371.86108 507.02454C -373.90213 515.8141 -374.09903 523.63 -370.74945 529.1799C -364.61646 527.08185 -359.74268 520.96844 -355.6561 512.92426C -354.56726 521.88074 -352.07812 529.29254 -347.03268 533.36206C -341.98706 529.29193 -339.49875 521.88 -338.4105 512.92303C -334.32388 520.9676 -329.44986 527.08154 -323.3166 529.18005C -319.9673 523.6297 -320.1641 515.8137 -322.20496 507.02457C -315.61337 513.1864 -308.94205 517.2646 -302.46088 517.1389C -301.21188 510.77786 -304.07016 503.5006 -308.9939 495.93967C -300.69244 499.47537 -293.0286 501.02576 -286.9813 498.69095C -287.98325 492.2864 -293.1579 486.4256 -300.37064 481.00464C -291.36063 481.4878 -283.62878 480.3236 -278.74478 476.0612C -281.8768 470.3856 -288.74393 466.6481 -297.3758 464.021C -288.74396 461.39346 -281.8767 457.655 -278.74506 451.9793C -283.6294 447.71713 -291.36072 446.55365 -300.37064 447.03735C -293.15793 441.61594 -287.9833 435.75412 -286.98172 429.3496C -293.02927 427.01498 -300.69235 428.56628 -308.9935 432.10236C -304.0699 424.54086 -301.2121 417.2627 -302.4614 410.9018C -308.94266 410.77634 -315.61304 414.8549 -322.20416 421.01675C -320.16367 412.22736 -319.9676 404.41077 -323.3171 398.86072C -329.45074 400.95978 -334.3239 407.0743 -338.4102 415.1195C -339.49832 406.16138 -341.98666 398.74905 -347.03265 394.67932L-347.03265 394.67932L-347.03275 394.67935z" stroke="#C4A000" stroke-width="0.7399945" fill="#EDD400" fill-rule="nonzero"/>
        <path d="M-309.45938 464.0207C -309.45938 474.39636 -313.12772 483.2525 -320.4644 490.58917C -327.8011 497.92584 -336.65723 501.59418 -347.03287 501.59418C -357.4085 501.59418 -366.26465 497.92584 -373.60135 490.58917C -380.93802 483.2525 -384.60635 474.39636 -384.60635 464.0207C -384.60635 453.64508 -380.93802 444.7889 -373.60135 437.4522C -366.26465 430.11557 -357.4085 426.44724 -347.03287 426.4472C -336.65723 426.44724 -327.8011 430.11557 -320.4644 437.4522C -313.12772 444.7889 -309.45938 453.64508 -309.45938 464.0207C -309.45938 464.45795 -309.467 464.89502 -309.48227 465.332" stroke="none" fill="#8F5902" fill-rule="nonzero"/>
	</g>
</g>
</svg>
